X: 62
T: Lark in the Morning
M: 6/8
L: 1/8
R: Jig
K: D
B|AFA AFA|BGB BdB|AFA Ade|fed BdB|
AFA AFA|BAB BAB|def afe|fdB Bd :|
B|def afa|baf afe|def afe|fdB BAB|
def afa|baf afd|~g3 fef|edB B2 :|
B|d2 f fef|fef fef|d2f fef|edB BAB|
d2f fef|fef fef|~g3 ~f3|edB BA :|
B|Add fdd|ede fdB|Add fdd|efe edB|
Add fdd|ede fdB|~g3 ~f3|edB B2 :|
